X:1
T:Rescue the Perishing
T:Rescue the Perishing
T:William Howard Doane
T:Frances Jane (Fanny) Crosby, 1869
T:Public Domain Courtesy of the Cyber Hymnal™
C:William Howard Doane
Z:Public Domain
Z:Courtesy of the Cyber Hymnal™
%%score ( 1 2 ) 3
L:1/8
Q:1/4=103
M:4/4
K:Bb
V:1 treble 
V:2 treble 
V:3 bass 
V:1
 [DF]2 [B,D][CE] [DF][DF] [DF]2 | [DB]2 [FA][EG] [EG]2 [DF]2 | [CF]2 [EG][FA] [FB]2 [Fc][Fd] | %3
w: 1.~Res- cue the per- ish- ing,|care for the dy- ing,|Snatch them in pi- ty from|
w: 2.~Though they are slight- ing Him,|still He is wait- ing,|Wait- ing the pen- i- tent|
w: 3.~Down in the hu- man heart,|crushed by the tempt- er,|Feel- ings lie bur- ied that|
w: 4.~Res- cue the per- ish- ing,|du- ty de- mands it;|Strength for thy la- bor the|
 [Fc]2 [=EB][EG] F4 | [DF]2 [B,D][CE] [DF][DF] [DF]2 | [DB]2 [FA][EG] [EG]2 [DF]2 | %6
w: sin and the grave;|Weep o’er the err- ing one,|lift up the fall- en,|
w: child to re- ceive;|Plead with them ear- nest- ly,|plead with them gent- ly;|
w: grace can re- store;|Touched by a lov- ing heart,|wak- ened by kind- ness,|
w: Lord will pro- vide;|Back to the nar- row way|pa- tient- ly win them;|
 [CF]2 [EG][FA] [FB]2 [Fc][Fd] | [Gc]2 [FB][FA] [FB]4 ||"^Refrain" [Fc]2 [FB][Fc] [Fd]>[Ec] [DB]2 | %9
w: Tell them of Je- sus, the|might- y to save.||
w: He will for- give if they|on- ly be- lieve.|Res- cue the per- ish- ing,|
w: Chords that were brok- en will|vi- brate once more.||
w: Tell the poor wand- ’rer a|Sav- ior has died.||
 [Fc]2 [FB][Fc] [Fd]2 [FB]2 | [GB]2 [FA][EG] [DF][FB] [Fd]2 | [Gc]2 [FB][EA] [DB]4 |] %12
w: |||
w: care for the dy- ing,|Je- sus is mer- ci- ful,|Je- sus will save.|
w: |||
w: |||
V:2
 x8 | x8 | x8 | x4 F4 | x8 | x8 | x8 | x8 || x8 | x8 | x8 | x8 |] %12
V:3
 [B,,B,]2 [B,,F,][B,,F,] [B,,B,][B,,B,] [B,,B,]2 | [B,,B,]2 [E,B,][E,B,] [B,,B,]2 [B,,B,]2 | %2
 [F,A,]2 [F,B,][F,C] [F,D]2 [F,A,][B,,B,] | [C,A,]2 [C,G,][C,B,] [F,A,]4 | %4
 [B,,B,]2 [B,,F,][B,,F,] [B,,B,][B,,B,] [B,,B,]2 | [B,,B,]2 [E,B,][E,B,] [B,,B,]2 [B,,B,]2 | %6
 [F,A,]2 [F,B,][F,C] [F,B,]2 [F,A,][B,,B,] | [E,B,]2 [F,D][F,C] [B,,D]4 || %8
 [F,A,]2 [F,G,][F,A,] [B,,B,]>[B,,F,] [B,,F,]2 | [F,A,]2 [F,G,][F,A,] [B,,B,]2 [B,,D]2 | %10
 [E,E]2 [E,B,][E,B,] [B,,B,][B,,D] [B,,B,]2 | [E,B,]2 [F,D][F,C] [B,,B,]4 |] %12

